res/img/24-hours-fill.svg

<svg xmlns="http://www.w3.org/2000/svg" width="30" height="30"><path id="_24-hours-fill" data-name="24-hours-fill" d="M18 19.5a4.5 4.5 0 0 1 3.12 7.743L18.255 30H22.5v3h-9v-2.586l5.54-5.333A1.5 1.5 0 1 0 16.5 24h-3a4.5 4.5 0 0 1 4.5-4.5Zm9 0v6h3v-6h3V33h-3v-4.5h-6v-9ZM6 18a11.978 11.978 0 0 0 4.5 9.369v3.624A14.992 14.992 0 0 1 3 18ZM18 3a15 15 0 0 1 14.925 13.5h-3.018A12 12 0 0 0 8.8 10.3l3.2 3.2H3v-9l3.671 3.669A14.97 14.97 0 0 1 18 3Z" transform="translate(-3 -3)" fill="#3f3c3c"/></svg>

<svg xmlns="http://www.w3.org/2000/svg" width="30" height="30" viewBox="0 0 30 30">
  <path id="_24-hours-fill" data-name="24-hours-fill" d="M18,19.5a4.5,4.5,0,0,1,3.12,7.743L18.255,30H22.5v3h-9V30.414l5.54-5.333A1.5,1.5,0,1,0,16.5,24h-3A4.5,4.5,0,0,1,18,19.5Zm9,0v6h3v-6h3V33H30V28.5H24v-9ZM6,18a11.978,11.978,0,0,0,4.5,9.369v3.624A14.992,14.992,0,0,1,3,18ZM18,3A15,15,0,0,1,32.925,16.5H29.907A12,12,0,0,0,8.8,10.3L12,13.5H3v-9L6.671,8.169A14.97,14.97,0,0,1,18,3Z" transform="translate(-3 -3)" fill="#3f3c3c"></path>
</svg>
